svg/fluentui-system-icons/ic_fluent_text_sort_descending_24_filled.svg

<svg width="24" height="24" viewBox="0 0 24 24" fill="none" xmlns="http://www.w3.org/2000/svg">
<path d="M3.74954 3C3.74954 2.44772 4.19727 2 4.74957 2H9.99977C10.3786 2 10.7248 2.214 10.8942 2.55279C11.0636 2.89157 11.0271 3.29699 10.7998 3.6L6.74965 8.99995H9.99977C10.5521 8.99995 10.9998 9.44766 10.9998 9.99995C10.9998 10.5522 10.5521 10.9999 9.99977 10.9999H4.74957C4.37079 10.9999 4.02451 10.7859 3.85511 10.4472C3.68571 10.1084 3.72227 9.70296 3.94955 9.39995L7.99968 4H4.74957C4.19727 4 3.74954 3.55228 3.74954 3ZM7.97877 12.6729C7.83935 12.2701 7.45997 12 7.03375 12C6.60753 12 6.22815 12.2701 6.08873 12.6729L3.29552 20.7419C3.11486 21.2638 3.3915 21.8333 3.91342 22.014C4.43534 22.1946 5.0049 21.918 5.18556 21.3961L5.59717 20.207H8.47033L8.88193 21.3961C9.0626 21.918 9.63216 22.1946 10.1541 22.014C10.676 21.8333 10.9526 21.2638 10.772 20.7419L7.97877 12.6729ZM6.28951 18.207L7.03375 16.0571L7.77799 18.207H6.28951ZM17.5 2C18.0523 2 18.5 2.44772 18.5 3V18.5858L20.2929 16.7929C20.6834 16.4024 21.3166 16.4024 21.7071 16.7929C22.0976 17.1834 22.0976 17.8166 21.7071 18.2071L18.2071 21.7071C17.8166 22.0976 17.1834 22.0976 16.7929 21.7071L13.2929 18.2071C12.9024 17.8166 12.9024 17.1834 13.2929 16.7929C13.6834 16.4024 14.3166 16.4024 14.7071 16.7929L16.5 18.5858V3C16.5 2.44772 16.9477 2 17.5 2Z" fill="#212121"/>
</svg>

<svg xmlns="http://www.w3.org/2000/svg" width="24" height="24"><path d="M3.75 3a1 1 0 0 1 1-1H10a1 1 0 0 1 .8 1.6L6.75 9H10a1 1 0 1 1 0 2H4.75a1 1 0 0 1-.8-1.6L8 4H4.75a1 1 0 0 1-1-1Zm4.229 9.673a1 1 0 0 0-1.89 0l-2.793 8.069a1 1 0 0 0 1.89.654l.411-1.189H8.47l.412 1.19a1 1 0 0 0 1.89-.655l-2.793-8.07Zm-1.69 5.534.745-2.15.744 2.15H6.29ZM17.5 2a1 1 0 0 1 1 1v15.586l1.793-1.793a1 1 0 0 1 1.414 1.414l-3.5 3.5a1 1 0 0 1-1.414 0l-3.5-3.5a1 1 0 0 1 1.414-1.414l1.793 1.793V3a1 1 0 0 1 1-1Z"/></svg>
